X: 24010
T: Log Drivers', The
R: waltz
M: 3/4
K: Gmajor
|:(3B, C^C|D3 B G>E|D3 ^C D>^D|E3 c A>c|E3 E (3A^G=G|
F3 c E>c|D3 D (3DEF|1 G>B A>G F>E|D3 D:|2 G3 z D2|G3 z||
|:(3d^cd|e3 d B>G|D3 G F>G|A3 G F>G|E3 E A>G|
F3 c E>c|D3 D (3DEF|1 G>B A>G F>E|D3 z:|2 G3 z D2|G3 z||

